packages/katcn/src/icons/svg/wind-solid.svg

<svg width="24" height="25" viewBox="0 0 24 25" fill="none" xmlns="http://www.w3.org/2000/svg">
<path d="M7.00004 8.56802C5.50004 8.56802 4.10004 8.16802 2.70004 7.16802C1.90004 6.56802 1.70004 5.46802 2.30004 4.66802C2.90004 3.86802 4.00004 3.66802 4.80004 4.26802C6.50004 5.46802 8.30004 4.96802 11.2 4.06802C14.2 3.16802 17.5 2.06802 20.8 4.16802C21.6 4.66802 21.9 5.76802 21.3 6.66802C20.8 7.46802 19.7 7.76802 18.8 7.16802C16.9 5.96802 14.7 6.66802 12.2 7.46802C10.6 7.96802 8.80004 8.56802 7.00004 8.56802Z" fill="black"/>
<path d="M7.00004 15.568C5.50004 15.568 4.10004 15.168 2.70004 14.168C1.90004 13.568 1.70004 12.468 2.30004 11.668C2.90004 10.868 4.00004 10.668 4.80004 11.268C6.50004 12.468 8.30004 11.968 11.2 11.068C14.2 10.168 17.5 9.06802 20.8 11.168C21.6 11.668 21.9 12.768 21.3 13.668C20.8 14.468 19.7 14.768 18.8 14.168C16.9 12.968 14.7 13.668 12.2 14.468C10.6 15.068 8.80004 15.568 7.00004 15.568Z" fill="black"/>
<path d="M7.00004 22.568C5.50004 22.568 4.10004 22.168 2.70004 21.168C1.90004 20.568 1.70004 19.468 2.30004 18.668C2.90004 17.868 4.00004 17.668 4.80004 18.268C6.40004 19.468 8.20004 18.968 11.1 18.068C14.1 17.168 17.4 16.068 20.7 18.168C21.5 18.668 21.8 19.768 21.2 20.668C20.7 21.468 19.6 21.768 18.7 21.168C16.8 19.968 14.6 20.668 12.1 21.468C10.6 22.068 8.80004 22.568 7.00004 22.568Z" fill="black"/>
</svg>

<svg xmlns="http://www.w3.org/2000/svg" fill="none" viewBox="0 0 24 25"><path fill="#000" d="M7 8.568c-1.5 0-2.9-.4-4.3-1.4-.8-.6-1-1.7-.4-2.5s1.7-1 2.5-.4c1.7 1.2 3.5.7 6.4-.2 3-.9 6.3-2 9.6.1.8.5 1.1 1.6.5 2.5-.5.8-1.6 1.1-2.5.5-1.9-1.2-4.1-.5-6.6.3-1.6.5-3.4 1.1-5.2 1.1m0 7c-1.5 0-2.9-.4-4.3-1.4-.8-.6-1-1.7-.4-2.5s1.7-1 2.5-.4c1.7 1.2 3.5.7 6.4-.2 3-.9 6.3-2 9.6.1.8.5 1.1 1.6.5 2.5-.5.8-1.6 1.1-2.5.5-1.9-1.2-4.1-.5-6.6.3-1.6.6-3.4 1.1-5.2 1.1m0 7c-1.5 0-2.9-.4-4.3-1.4-.8-.6-1-1.7-.4-2.5s1.7-1 2.5-.4c1.6 1.2 3.4.7 6.3-.2 3-.9 6.3-2 9.6.1.8.5 1.1 1.6.5 2.5-.5.8-1.6 1.1-2.5.5-1.9-1.2-4.1-.5-6.6.3-1.5.6-3.3 1.1-5.1 1.1"/></svg>
